X:5005
T:Beef To The Heel
M:6/8
Q:180
C:Aidan Crossey
R:Double Jig
K:D
|:Adf fdf|Ace ece|Bcd efe|dcB A3|
Adf fdf|Ace ece|Bcd efe|d2c d3:||
|:fed fed|ecA ecA|Bcd efe|dcB A3|
fed fed|ecA ecA|Bcd efe|d2c d3:||
|:Adf a^ga|gec gec|Adf a^g^g|gec Ace|
Adf a^ga|gec gec|Bcd efe|d2c d3:||
